X: 1
T: Bukkeh\onnhallingen
T: Ram's horn halling
O: Knut Eve
Z: 2010 John Chambers <jc:trillian.mit.edu>
S: handwritten MS of unknown origin
M: 2/4
L: 1/16
K: D
| (DEF)A TG2(FG) | (A3B) (AG{A}GF) \
| (DEF)A TG2(FG) | (A3B) (AG{A}GF) |
| (DEF)A TG2(FG | A2)(FB G2)(FG) \
| (DEF)A TG2(FG | {G}(A3)B (AG{A}GF) \
| (DEF)A (GE)(GF) |]
[| {C}D4 (CDEG) | (FDF)A (GE)(GF) \
| {C}D4 (CDEG) | (FDF)A (GE)(GF) \
| {C}D4 (CDEG) |
| TF4 (EFGE \
| .F2{C}(D2 .E2){C}D2 | .F2{C}(D2 .E2){C}D2 \
| .F2)(D2 .E2)(DE) | {C}D4 D4 |]
